static/speakers/placeholder.svg

<svg width="82" height="82" viewBox="0 0 82 82" fill="none" xmlns="http://www.w3.org/2000/svg">
<circle cx="41" cy="41" r="41" fill="#D1DCE7"/>
<path d="M39.8174 43.811C40.2684 44.262 40.8624 44.504 41.5004 44.504C42.1384 44.504 42.7324 44.251 43.1834 43.811C43.5024 43.492 43.5024 42.964 43.1834 42.645C42.8644 42.326 42.3364 42.326 42.0174 42.645C41.8744 42.788 41.6984 42.854 41.5004 42.854C41.3024 42.854 41.1264 42.777 40.9834 42.645C40.6644 42.326 40.1364 42.326 39.8174 42.645C39.4984 42.964 39.4984 43.481 39.8174 43.811Z" fill="black"/>
<path d="M44.2504 46.869C44.1624 46.803 44.0414 46.759 43.9094 46.77C43.9094 46.77 43.9094 46.77 43.8984 46.77H43.7994C43.6894 46.737 43.5354 46.605 43.4034 46.495C43.2164 46.33 43.0184 46.154 42.7434 46.066C42.3914 45.945 41.9734 45.978 41.4894 46.143C41.0164 45.978 40.5874 45.956 40.2354 46.066C40.1364 46.099 40.0484 46.143 39.9494 46.209C39.8944 46.242 39.8504 46.275 39.7954 46.319L39.7844 46.33C39.7624 46.352 39.7404 46.363 39.7184 46.385L39.7074 46.396C39.6854 46.407 39.6744 46.429 39.6524 46.44L39.5754 46.506C39.4984 46.572 39.4324 46.627 39.3664 46.682L39.2894 46.737L39.2784 46.748H39.2674C39.2564 46.759 39.2454 46.759 39.2234 46.77C39.2234 46.77 39.2124 46.77 39.2124 46.781H39.2014H39.1904H39.1134C39.0474 46.781 38.9704 46.792 38.9044 46.814C38.7724 46.858 38.6734 46.946 38.6294 47.045V47.056C38.6294 47.056 38.6294 47.056 38.6294 47.067C38.5854 47.177 38.6074 47.298 38.6954 47.397C38.7504 47.463 38.8274 47.518 38.9154 47.54C38.9264 47.54 38.9374 47.551 38.9374 47.551L38.9484 47.562L39.0034 47.606L39.0144 47.617L39.0254 47.628C39.0474 47.65 39.0584 47.661 39.0804 47.683L39.0914 47.694C39.1134 47.716 39.1354 47.749 39.1574 47.782C39.1574 47.782 39.1574 47.782 39.1574 47.793C39.1684 47.815 39.1904 47.837 39.2014 47.848C39.2124 47.87 39.2234 47.881 39.2454 47.903C39.2674 47.925 39.2784 47.958 39.3004 47.98L39.3114 48.002C39.3224 48.024 39.3334 48.035 39.3554 48.057L39.3774 48.079C39.3884 48.101 39.4104 48.112 39.4214 48.134L39.4324 48.145C39.4544 48.167 39.4764 48.189 39.4984 48.211C39.5204 48.233 39.5314 48.255 39.5534 48.266L39.5644 48.277C39.5864 48.299 39.5974 48.31 39.6194 48.332L39.6304 48.343C39.6744 48.387 39.7294 48.42 39.7734 48.464C39.7954 48.486 39.8174 48.497 39.8394 48.519L39.8504 48.53C39.8724 48.541 39.8944 48.563 39.9274 48.574C39.9274 48.574 39.9274 48.574 39.9384 48.574C39.9934 48.607 40.0484 48.64 40.1144 48.673C40.1474 48.684 40.1694 48.695 40.2024 48.717C40.2904 48.761 40.3894 48.794 40.4884 48.816C40.7744 48.893 41.0934 48.937 41.4894 48.937C42.5894 48.937 43.2384 48.629 43.7444 47.892C43.9094 47.65 44.0194 47.562 44.0744 47.529C44.1294 47.518 44.1734 47.496 44.2174 47.463C44.3274 47.397 44.4044 47.287 44.4044 47.166C44.4154 47.056 44.3604 46.946 44.2504 46.869ZM38.8604 47.518C38.8494 47.518 38.8384 47.507 38.8384 47.507C38.8494 47.507 38.8604 47.507 38.8604 47.518Z" fill="black"/>
<path d="M44.7011 39.455C45.3171 38.839 46.3291 38.839 46.9561 39.455C47.1211 39.62 47.3301 39.697 47.5391 39.697C47.7481 39.697 47.9572 39.62 48.1222 39.455C48.4412 39.136 48.4412 38.608 48.1222 38.289C46.8572 37.024 44.8001 37.024 43.5351 38.289C43.2161 38.608 43.2161 39.136 43.5351 39.455C43.8541 39.785 44.3821 39.785 44.7011 39.455Z" fill="black"/>
<path d="M36.0444 39.455C36.6604 38.839 37.6724 38.839 38.2994 39.455C38.4644 39.62 38.6734 39.697 38.8824 39.697C39.0914 39.697 39.3004 39.62 39.4654 39.455C39.7844 39.136 39.7844 38.608 39.4654 38.289C38.2004 37.024 36.1434 37.024 34.8784 38.289C34.5594 38.608 34.5594 39.136 34.8784 39.455C35.2084 39.785 35.7254 39.785 36.0444 39.455Z" fill="black"/>
<path d="M61.1133 37.783C62.6533 33.185 61.9493 28.785 59.0013 24.682C53.0173 16.333 44.3383 14.584 38.3763 16.542C35.2523 17.576 32.9203 19.578 31.6773 22.141C31.4793 22.13 31.2923 22.119 31.0943 22.119C28.3113 22.119 25.7703 23.219 23.9553 25.21C22.2283 27.135 21.2603 29.753 21.2603 32.58C21.2603 36.155 22.2943 38.861 24.3293 40.643C24.3293 40.665 24.3293 40.676 24.3293 40.698C24.3293 43.415 26.5403 45.615 29.2463 45.615H29.7633C30.5553 47.606 31.8533 49.355 33.4813 50.708L30.4123 52.776C28.5753 54.019 27.4753 56.076 27.4753 58.298V58.386C27.4753 61.246 29.2683 63.732 31.9083 64.667C31.9193 64.667 31.9193 64.667 31.9303 64.678C32.0183 64.711 32.1173 64.744 32.2053 64.766C32.2273 64.766 32.2383 64.777 32.2603 64.777C32.3593 64.81 32.4693 64.832 32.5683 64.865C33.1073 64.997 33.6573 65.118 34.1963 65.217C36.5613 65.679 38.9703 65.91 41.3793 65.91C44.1953 65.91 47.0113 65.602 49.7503 64.964L50.3553 64.821C50.4653 64.799 50.5643 64.766 50.6743 64.744C50.6853 64.744 50.7073 64.733 50.7183 64.733C53.5673 63.919 55.5253 61.334 55.5253 58.331C55.5253 56.087 54.4033 54.008 52.5223 52.765L49.5963 50.84C50.9053 50.224 52.9403 48.86 55.0303 46.858C57.0763 44.9 59.7823 41.743 61.1133 37.783ZM57.9233 27.861C57.9893 28.114 58.0443 28.378 58.0993 28.631C58.1653 28.928 57.9673 29.214 57.6703 29.28C57.6373 29.291 57.5933 29.291 57.5603 29.291C57.3073 29.291 57.0763 29.115 57.0213 28.851C56.9663 28.609 56.9113 28.367 56.8563 28.125C56.7793 27.828 56.9553 27.531 57.2523 27.454C57.5493 27.388 57.8573 27.564 57.9233 27.861ZM50.1023 19.974C50.2013 19.688 50.5093 19.523 50.7953 19.622C50.9603 19.677 54.9423 21.019 57.2853 25.727C57.4173 26.002 57.3073 26.332 57.0323 26.464C56.9553 26.508 56.8673 26.519 56.7903 26.519C56.5923 26.519 56.3943 26.409 56.2953 26.211C54.1613 21.91 50.4873 20.667 50.4543 20.656C50.1683 20.568 50.0033 20.26 50.1023 19.974ZM28.8613 43.393C27.5413 43.206 26.5293 42.073 26.5293 40.698C26.5293 40.544 26.5403 40.401 26.5623 40.258C26.5733 40.214 26.5733 40.181 26.5843 40.137C26.5953 40.093 26.6063 40.06 26.6173 40.016C26.6283 39.983 26.6393 39.939 26.6503 39.906C26.6613 39.862 26.6723 39.829 26.6833 39.796C26.6943 39.763 26.7053 39.719 26.7273 39.686C26.7383 39.653 26.7603 39.62 26.7713 39.587C26.7933 39.554 26.8043 39.51 26.8263 39.477C26.8373 39.455 26.8483 39.433 26.8703 39.411C27.1013 38.982 27.4423 38.63 27.8493 38.377C27.9043 38.344 27.9703 38.311 28.0363 38.278H28.0473C28.1133 38.245 28.1683 38.223 28.2343 38.19C28.2453 38.19 28.2453 38.19 28.2563 38.179C28.3223 38.157 28.3773 38.135 28.4433 38.113C28.4543 38.113 28.4653 38.102 28.4763 38.102C28.5423 38.08 28.5973 38.069 28.6633 38.047C28.6743 38.047 28.6853 38.047 28.6963 38.036C28.7623 38.025 28.8173 38.014 28.8833 38.003V40.94V41.963V43.393H28.8613ZM31.1053 41.875C31.0943 41.721 31.0833 41.567 31.0723 41.424C31.0723 41.413 31.0723 41.413 31.0723 41.402C31.0613 41.248 31.0613 41.105 31.0613 40.962V36.892V34.252C31.0613 34.153 31.0613 34.043 31.0613 33.944C31.0613 33.911 31.0613 33.867 31.0613 33.834C31.0613 33.768 31.0613 33.713 31.0723 33.647C31.0723 33.592 31.0833 33.548 31.0833 33.493C31.0833 33.449 31.0943 33.405 31.0943 33.361C31.2703 31.304 32.0403 29.412 33.2283 27.861C36.8583 27.938 40.2023 29.005 43.1723 31.029C46.4283 33.24 49.3763 36.672 51.9283 41.226C51.9283 41.259 51.9283 41.303 51.9283 41.336C51.9283 41.391 51.9283 41.446 51.9173 41.49C51.9173 41.545 51.9063 41.611 51.9063 41.666C51.9063 41.699 51.9063 41.732 51.8953 41.754C51.8843 41.82 51.8843 41.897 51.8733 41.963C51.8733 41.974 51.8733 41.996 51.8733 42.007C51.4553 46.11 48.6503 49.509 44.8773 50.807C44.8443 50.818 44.8223 50.829 44.7893 50.84C44.7343 50.862 44.6683 50.884 44.6133 50.895C44.5363 50.917 44.4593 50.939 44.3823 50.961C44.3383 50.972 44.2943 50.983 44.2503 50.994C44.1733 51.016 44.1073 51.038 44.0303 51.049C43.9973 51.06 43.9643 51.071 43.9313 51.071C43.8433 51.093 43.7553 51.115 43.6673 51.126C43.6563 51.126 43.6343 51.137 43.6233 51.137C43.5133 51.159 43.4033 51.181 43.2933 51.203C43.2823 51.203 43.2603 51.203 43.2493 51.214C43.1503 51.225 43.0623 51.247 42.9633 51.258C42.9413 51.258 42.9193 51.269 42.8973 51.269C42.6773 51.302 42.4573 51.324 42.2373 51.335C42.2153 51.335 42.1823 51.335 42.1603 51.335C42.0723 51.335 41.9843 51.346 41.9073 51.346C41.8743 51.346 41.8523 51.346 41.8193 51.346C41.7093 51.346 41.5993 51.357 41.4893 51.357C41.3793 51.357 41.2693 51.357 41.1593 51.346C41.1263 51.346 41.1043 51.346 41.0713 51.346C40.9833 51.346 40.8953 51.335 40.8073 51.335C40.7853 51.335 40.7633 51.335 40.7303 51.335C40.6203 51.324 40.5103 51.313 40.4003 51.302C40.3893 51.302 40.3783 51.302 40.3783 51.302C40.2793 51.291 40.1693 51.28 40.0703 51.269C40.0483 51.269 40.0263 51.258 39.9933 51.258C39.8943 51.247 39.7953 51.225 39.6963 51.214C39.6853 51.214 39.6743 51.214 39.6633 51.214C39.5533 51.192 39.4433 51.17 39.3443 51.148C39.3223 51.148 39.2893 51.137 39.2673 51.126C39.1903 51.104 39.1023 51.093 39.0253 51.071C38.9923 51.06 38.9593 51.06 38.9263 51.049C38.8383 51.027 38.7393 51.005 38.6513 50.972C38.6073 50.961 38.5633 50.95 38.5193 50.928C38.4643 50.917 38.4093 50.895 38.3543 50.873C38.2993 50.851 38.2443 50.84 38.1893 50.818C38.1563 50.807 38.1233 50.796 38.0903 50.785C34.2843 49.498 31.4683 46.033 31.1053 41.875ZM43.4253 60.388C42.2593 61.136 40.7523 61.136 39.5753 60.388C38.5743 59.739 37.4743 59.288 36.3303 59.024V52.479C36.6823 52.633 37.0343 52.776 37.3863 52.897C37.4193 52.908 37.4633 52.919 37.4963 52.93C37.5623 52.952 37.6283 52.974 37.6943 52.996C37.7493 53.018 37.8043 53.029 37.8703 53.051C37.9253 53.062 37.9693 53.084 38.0243 53.095C38.1343 53.128 38.2443 53.161 38.3543 53.183C38.3763 53.183 38.3873 53.194 38.4093 53.194C38.5083 53.216 38.6073 53.238 38.7063 53.271C38.7393 53.282 38.7723 53.282 38.7943 53.293C38.8823 53.315 38.9813 53.337 39.0693 53.348C39.1023 53.359 39.1243 53.359 39.1573 53.37C39.2673 53.392 39.3663 53.403 39.4763 53.425C39.4873 53.425 39.5093 53.425 39.5203 53.436C39.7623 53.48 40.0153 53.502 40.2683 53.535C40.3013 53.535 40.3233 53.535 40.3563 53.546C40.4443 53.557 40.5433 53.557 40.6313 53.568C40.6643 53.568 40.7083 53.568 40.7413 53.579C40.8293 53.579 40.9173 53.59 41.0053 53.59C41.0383 53.59 41.0713 53.59 41.1153 53.59C41.2363 53.59 41.3573 53.601 41.4783 53.601C41.5993 53.601 41.7203 53.601 41.8413 53.59C41.8743 53.59 41.9073 53.59 41.9403 53.59C42.0283 53.59 42.1163 53.579 42.2043 53.579C42.2373 53.579 42.2813 53.579 42.3143 53.568C42.4023 53.557 42.4903 53.557 42.5893 53.546C42.6223 53.546 42.6553 53.546 42.6773 53.535C42.7873 53.524 42.8973 53.513 43.0073 53.502C43.0183 53.502 43.0293 53.502 43.0293 53.502C43.2823 53.469 43.5243 53.436 43.7663 53.392C43.7883 53.392 43.8103 53.381 43.8323 53.381C43.9313 53.359 44.0303 53.348 44.1183 53.326C44.1513 53.315 44.1733 53.315 44.2063 53.304C44.2943 53.282 44.3823 53.26 44.4813 53.238C44.5143 53.227 44.5363 53.227 44.5693 53.216C44.6793 53.194 44.7893 53.161 44.8883 53.128C44.9323 53.117 44.9873 53.095 45.0313 53.084C45.0973 53.062 45.1633 53.04 45.2293 53.029C45.2953 53.007 45.3613 52.985 45.4383 52.963C45.4713 52.952 45.5043 52.941 45.5373 52.93C45.6143 52.897 45.7023 52.875 45.7793 52.842C45.7903 52.842 45.8013 52.831 45.8123 52.831C45.9773 52.776 46.1313 52.71 46.2963 52.644V59.123C45.3173 59.376 44.3273 59.805 43.4253 60.388ZM29.6643 58.298C29.6643 56.813 30.4013 55.427 31.6333 54.602L34.1303 52.919V58.76C34.0643 58.76 34.0093 58.76 33.9433 58.76C32.5243 58.771 31.1273 59.079 29.8403 59.651C29.7193 59.255 29.6643 58.826 29.6643 58.386V58.298ZM51.3343 54.613C52.5883 55.438 53.3473 56.835 53.3473 58.342C53.3473 58.793 53.2813 59.233 53.1493 59.651C51.8623 59.079 50.4763 58.771 49.0573 58.76C48.8813 58.76 48.7163 58.76 48.5403 58.771V52.776L51.3343 54.613Z" fill="black"/>
</svg>

<svg fill="none" height="82" viewBox="0 0 82 82" width="82" xmlns="http://www.w3.org/2000/svg"><circle cx="41" cy="41" fill="#d1dce7" r="41"/><g fill="#000"><path d="m39.8174 43.811c.451.451 1.045.693 1.683.693s1.232-.253 1.683-.693c.319-.319.319-.847 0-1.166s-.847-.319-1.166 0c-.143.143-.319.209-.517.209s-.374-.077-.517-.209c-.319-.319-.847-.319-1.166 0s-.319.836 0 1.166z"/><path d="m44.2504 46.869c-.088-.066-.209-.11-.341-.099 0 0 0 0-.011 0h-.099c-.11-.033-.264-.165-.396-.275-.187-.165-.385-.341-.66-.429-.352-.121-.77-.088-1.254.077-.473-.165-.902-.187-1.254-.077-.099.033-.187.077-.286.143-.055.033-.099.066-.154.11l-.011.011c-.022.022-.044.033-.066.055l-.011.011c-.022.011-.033.033-.055.044l-.077.066c-.077.066-.143.121-.209.176l-.077.055-.011.011h-.011c-.011.011-.022.011-.044.022 0 0-.011 0-.011.011h-.011-.011-.077c-.066 0-.143.011-.209.033-.132.044-.231.132-.275.231v.011.011c-.044.11-.022.231.066.33.055.066.132.121.22.143.011 0 .022.011.022.011l.011.011.055.044.011.011.011.011c.022.022.033.033.055.055l.011.011c.022.022.044.055.066.088v.011c.011.022.033.044.044.055.011.022.022.033.044.055s.033.055.055.077l.011.022c.011.022.022.033.044.055l.022.022c.011.022.033.033.044.055l.011.011.066.066c.022.022.033.044.055.055l.011.011.055.055.011.011c.044.044.099.077.143.121.022.022.044.033.066.055l.011.011c.022.011.044.033.077.044h.011c.055.033.11.066.176.099.033.011.055.022.088.044.088.044.187.077.286.099.286.077.605.121 1.001.121 1.1 0 1.749-.308 2.255-1.045.165-.242.275-.33.33-.363.055-.011.099-.033.143-.066.11-.066.187-.176.187-.297.011-.11-.044-.22-.154-.297zm-5.39.649c-.011 0-.022-.011-.022-.011.011 0 .022 0 .022.011z"/><path d="m44.7011 39.455c.616-.616 1.628-.616 2.255 0 .165.165.374.242.583.242s.4181-.077.5831-.242c.319-.319.319-.847 0-1.166-1.265-1.265-3.3221-1.265-4.5871 0-.319.319-.319.847 0 1.166.319.33.847.33 1.166 0z"/><path d="m36.0444 39.455c.616-.616 1.628-.616 2.255 0 .165.165.374.242.583.242s.418-.077.583-.242c.319-.319.319-.847 0-1.166-1.265-1.265-3.322-1.265-4.587 0-.319.319-.319.847 0 1.166.33.33.847.33 1.166 0z"/><path d="m61.1133 37.783c1.54-4.598.836-8.998-2.112-13.101-5.984-8.349-14.663-10.098-20.625-8.14-3.124 1.034-5.456 3.036-6.699 5.599-.198-.011-.385-.022-.583-.022-2.783 0-5.324 1.1-7.139 3.091-1.727 1.925-2.695 4.543-2.695 7.37 0 3.575 1.034 6.281 3.069 8.063v.055c0 2.717 2.211 4.917 4.917 4.917h.517c.792 1.991 2.09 3.74 3.718 5.093l-3.069 2.068c-1.837 1.243-2.937 3.3-2.937 5.522v.088c0 2.86 1.793 5.346 4.433 6.281.011 0 .011 0 .022.011.088.033.187.066.275.088.022 0 .033.011.055.011.099.033.209.055.308.088.539.132 1.089.253 1.628.352 2.365.462 4.774.693 7.183.693 2.816 0 5.632-.308 8.371-.946l.605-.143c.11-.022.209-.055.319-.077.011 0 .033-.011.044-.011 2.849-.814 4.807-3.399 4.807-6.402 0-2.244-1.122-4.323-3.003-5.566l-2.926-1.925c1.309-.616 3.344-1.98 5.434-3.982 2.046-1.958 4.752-5.115 6.083-9.075zm-3.19-9.922c.066.253.121.517.176.77.066.297-.132.583-.429.649-.033.011-.077.011-.11.011-.253 0-.484-.176-.539-.44-.055-.242-.11-.484-.165-.726-.077-.297.099-.594.396-.671.297-.066.605.11.671.407zm-7.821-7.887c.099-.286.407-.451.693-.352.165.055 4.147 1.397 6.49 6.105.132.275.022.605-.253.737-.077.044-.165.055-.242.055-.198 0-.396-.11-.495-.308-2.134-4.301-5.808-5.544-5.841-5.555-.286-.088-.451-.396-.352-.682zm-21.241 23.419c-1.32-.187-2.332-1.32-2.332-2.695 0-.154.011-.297.033-.44.011-.044.011-.077.022-.121s.022-.077.033-.121c.011-.033.022-.077.033-.11.011-.044.022-.077.033-.11s.022-.077.044-.11c.011-.033.033-.066.044-.099.022-.033.033-.077.055-.11.011-.022.022-.044.044-.066.231-.429.572-.781.979-1.034.055-.033.121-.066.187-.099h.011c.066-.033.121-.055.187-.088.011 0 .011 0 .022-.011.066-.022.121-.044.187-.066.011 0 .022-.011.033-.011.066-.022.121-.033.187-.055.011 0 .022 0 .033-.011.066-.011.121-.022.187-.033v2.937 1.023 1.43zm2.244-1.518c-.011-.154-.022-.308-.033-.451 0-.011 0-.011 0-.022-.011-.154-.011-.297-.011-.44v-4.07-2.64c0-.099 0-.209 0-.308 0-.033 0-.077 0-.11 0-.066 0-.121.011-.187 0-.055.011-.099.011-.154 0-.044.011-.088.011-.132.176-2.057.946-3.949 2.134-5.5 3.63.077 6.974 1.144 9.944 3.168 3.256 2.211 6.204 5.643 8.756 10.197v.11c0 .055 0 .11-.011.154 0 .055-.011.121-.011.176 0 .033 0 .066-.011.088-.011.066-.011.143-.022.209v.044c-.418 4.103-3.223 7.502-6.996 8.8-.033.011-.055.022-.088.033-.055.022-.121.044-.176.055-.077.022-.154.044-.231.066-.044.011-.088.022-.132.033-.077.022-.143.044-.22.055-.033.011-.066.022-.099.022-.088.022-.176.044-.264.055-.011 0-.033.011-.044.011-.11.022-.22.044-.33.066-.011 0-.033 0-.044.011-.099.011-.187.033-.286.044-.022 0-.044.011-.066.011-.22.033-.44.055-.66.066-.022 0-.055 0-.077 0-.088 0-.176.011-.253.011-.033 0-.055 0-.088 0-.11 0-.22.011-.33.011s-.22 0-.33-.011c-.033 0-.055 0-.088 0-.088 0-.176-.011-.264-.011-.022 0-.044 0-.077 0-.11-.011-.22-.022-.33-.033-.011 0-.022 0-.022 0-.099-.011-.209-.022-.308-.033-.022 0-.044-.011-.077-.011-.099-.011-.198-.033-.297-.044-.011 0-.022 0-.033 0-.11-.022-.22-.044-.319-.066-.022 0-.055-.011-.077-.022-.077-.022-.165-.033-.242-.055-.033-.011-.066-.011-.099-.022-.088-.022-.187-.044-.275-.077-.044-.011-.088-.022-.132-.044-.055-.011-.11-.033-.165-.055s-.11-.033-.165-.055c-.033-.011-.066-.022-.099-.033-3.806-1.287-6.622-4.752-6.985-8.91zm12.32 18.513c-1.166.748-2.673.748-3.85 0-1.001-.649-2.101-1.1-3.245-1.364v-6.545c.352.154.704.297 1.056.418.033.011.077.022.11.033.066.022.132.044.198.066.055.022.11.033.176.055.055.011.099.033.154.044.11.033.22.066.33.088.022 0 .033.011.055.011.099.022.198.044.297.077.033.011.066.011.088.022.088.022.187.044.275.055.033.011.055.011.088.022.11.022.209.033.319.055.011 0 .033 0 .044.011.242.044.495.066.748.099.033 0 .055 0 .088.011.088.011.187.011.275.022.033 0 .077 0 .11.011.088 0 .176.011.264.011h.11c.121 0 .242.011.363.011s.242 0 .363-.011h.099c.088 0 .176-.011.264-.011.033 0 .077 0 .11-.011.088-.011.176-.011.275-.022.033 0 .066 0 .088-.011.11-.011.22-.022.33-.033h.022c.253-.033.495-.066.737-.11.022 0 .044-.011.066-.011.099-.022.198-.033.286-.055.033-.011.055-.011.088-.022.088-.022.176-.044.275-.066.033-.011.055-.011.088-.022.11-.022.22-.055.319-.088.044-.011.099-.033.143-.044.066-.022.132-.044.198-.055.066-.022.132-.044.209-.066l.099-.033c.077-.033.165-.055.242-.088.011 0 .022-.011.033-.011.165-.055.319-.121.484-.187v6.479c-.979.253-1.969.682-2.871 1.265zm-13.761-2.09c0-1.485.737-2.871 1.969-3.696l2.497-1.683v5.841c-.066 0-.121 0-.187 0-1.419.011-2.816.319-4.103.891-.121-.396-.176-.825-.176-1.265zm21.67-3.685c1.254.825 2.013 2.222 2.013 3.729 0 .451-.066.891-.198 1.309-1.287-.572-2.673-.88-4.092-.891-.176 0-.341 0-.517.011v-5.995z"/></g></svg>
